agir/front/components/genericComponents/images/group_financement.svg

<svg width="244" height="160" viewBox="0 0 244 160" fill="none" xmlns="http://www.w3.org/2000/svg">
<g clip-path="url(#clip0)">
<path d="M113.833 85.1184C105.416 85.1184 97.1874 82.6224 90.1885 77.9459C83.1897 73.2694 77.7348 66.6226 74.5136 58.8459C71.2924 51.0692 70.4496 42.512 72.0917 34.2563C73.7339 26.0007 77.7872 18.4173 83.7393 12.4653C89.6913 6.51331 97.2746 2.45994 105.53 0.817782C113.786 -0.824374 122.343 0.0184414 130.12 3.23965C137.897 6.46085 144.543 11.9158 149.22 18.9146C153.896 25.9134 156.392 34.1418 156.392 42.5592C156.38 53.8427 151.892 64.6604 143.913 72.6391C135.934 80.6177 125.117 85.1057 113.833 85.1184ZM113.833 1.14163C105.642 1.14163 97.6339 3.57073 90.8228 8.12175C84.0117 12.6728 78.7031 19.1413 75.5683 26.7094C72.4335 34.2775 71.6133 42.6052 73.2114 50.6394C74.8095 58.6736 78.7541 66.0535 84.5465 71.8459C90.3388 77.6382 97.7188 81.5829 105.753 83.181C113.787 84.7791 122.115 83.9589 129.683 80.8241C137.251 77.6893 143.72 72.3807 148.271 65.5696C152.822 58.7585 155.251 50.7508 155.251 42.5592C155.238 31.5784 150.871 21.0509 143.106 13.2863C135.342 5.52165 124.814 1.15404 113.833 1.14163Z" fill="#571AFF"/>
<path d="M119.469 56.2664C122.106 55.3269 124.168 53.9387 125.654 52.1017C127.175 50.2521 128.063 48.0731 128.319 45.5645L134.016 43.5352C133.933 47.5281 132.741 51.0241 130.44 54.0232C128.127 56.987 124.984 59.1767 121.01 60.5922C116.86 62.0703 112.795 62.2301 108.815 61.0714C104.836 59.9128 101.566 57.6297 99.0046 54.2222L93.8875 56.0448L92.6849 52.6685L97.0635 51.109C96.6323 50.2322 96.2539 49.3366 95.9282 48.4222C95.615 47.543 95.3609 46.6625 95.1657 45.7809L90.7872 47.3404L89.6034 44.0169L94.6678 42.2131C94.5271 39.3702 94.9563 36.681 95.9555 34.1454C96.9773 31.5621 98.4785 29.3233 100.459 27.429C102.462 25.487 104.853 24.0211 107.631 23.0316C111.605 21.6161 115.432 21.3431 119.11 22.2127C122.788 23.0822 125.928 25.0551 128.53 28.1311L122.832 30.1604C121.036 28.3432 118.981 27.1925 116.669 26.7083C114.356 26.2242 111.864 26.4581 109.191 27.4101C106.237 28.4623 103.921 30.1392 102.244 32.4406C100.602 34.7295 99.7825 37.3795 99.7849 40.3906L112.235 35.9562L113.419 39.2797L100.125 44.0147C100.32 44.8963 100.574 45.7767 100.887 46.656C101.25 47.6759 101.646 48.5652 102.075 49.324L115.316 44.6078L116.519 47.9841L104.122 52.3996C106.069 54.6389 108.395 56.1087 111.102 56.8092C113.831 57.462 116.62 57.281 119.469 56.2664Z" fill="#571AFF"/>
<path d="M130.735 73.8399C131.086 73.3354 131.546 72.9218 132.081 72.632C132.615 72.3422 133.208 72.1842 133.812 72.1707C134.417 72.1572 135.016 72.2885 135.562 72.5542C136.108 72.8199 136.586 73.2125 136.958 73.7009L150 69.1626L148.192 76.2532L136.084 79.4758C135.326 80.0016 134.411 80.2374 133.5 80.1418C132.589 80.0462 131.74 79.6253 131.102 78.9529C130.464 78.2805 130.078 77.3996 130.01 76.4647C129.943 75.5298 130.2 74.6005 130.735 73.8399Z" fill="#FFB8B8"/>
<path d="M224.626 159.519C225.46 150.538 227.763 141.754 231.444 133.519C232.47 131.227 233.599 128.986 234.832 126.795C235.148 126.231 234.282 125.725 233.965 126.289C229.484 134.268 226.344 142.93 224.672 151.928C224.206 154.441 223.857 156.971 223.623 159.519C223.563 160.162 224.567 160.158 224.626 159.519Z" fill="#E6E6E6"/>
<path d="M237.262 128.404C240.772 128.404 243.617 125.559 243.617 122.049C243.617 118.54 240.772 115.694 237.262 115.694C233.752 115.694 230.907 118.54 230.907 122.049C230.907 125.559 233.752 128.404 237.262 128.404Z" fill="#E6E6E6"/>
<path d="M225.276 159.688C225.817 153.861 227.311 148.163 229.699 142.82C230.365 141.334 231.097 139.88 231.897 138.458C231.937 138.384 231.947 138.297 231.924 138.216C231.901 138.134 231.848 138.065 231.775 138.023C231.702 137.98 231.615 137.967 231.533 137.987C231.451 138.007 231.38 138.058 231.335 138.13C228.427 143.307 226.39 148.926 225.306 154.763C225.004 156.393 224.777 158.035 224.625 159.688C224.587 160.105 225.238 160.103 225.276 159.688H225.276Z" fill="#E6E6E6"/>
<path d="M233.474 139.502C235.751 139.502 237.597 137.657 237.597 135.38C237.597 133.103 235.751 131.257 233.474 131.257C231.197 131.257 229.351 133.103 229.351 135.38C229.351 137.657 231.197 139.502 233.474 139.502Z" fill="#E6E6E6"/>
<path d="M224.455 159.299C221.298 154.372 218.971 148.96 217.568 143.279C217.178 141.697 216.861 140.1 216.618 138.488C216.603 138.404 216.558 138.33 216.49 138.28C216.422 138.23 216.337 138.208 216.253 138.219C216.169 138.23 216.093 138.274 216.041 138.34C215.989 138.406 215.964 138.49 215.972 138.574C216.864 144.444 218.714 150.128 221.449 155.398C222.214 156.869 223.044 158.303 223.942 159.7C224.168 160.052 224.679 159.649 224.455 159.299V159.299Z" fill="#E6E6E6"/>
<path d="M215.967 139.213C218.244 139.213 220.09 137.367 220.09 135.09C220.09 132.813 218.244 130.967 215.967 130.967C213.69 130.967 211.844 132.813 211.844 135.09C211.844 137.367 213.69 139.213 215.967 139.213Z" fill="#E6E6E6"/>
<path d="M204.805 98.995C204.952 98.4368 204.975 97.8531 204.872 97.285C204.769 96.7169 204.543 96.1783 204.21 95.707C203.876 95.2358 203.443 94.8434 202.942 94.5575C202.44 94.2715 201.882 94.0991 201.307 94.0522L197.799 80.4649L192.908 85.8739L196.989 97.9474C196.975 98.9192 197.317 99.8627 197.951 100.599C198.586 101.335 199.468 101.813 200.432 101.942C201.395 102.072 202.372 101.843 203.178 101.3C203.984 100.756 204.563 99.9364 204.805 98.995L204.805 98.995Z" fill="#FFB8B8"/>
<path d="M185.92 47.9468L201.8 89.5945L194.977 91.4811L178.556 47.7024L179.744 46.5613C180.196 46.1272 180.749 45.8118 181.353 45.6433C181.956 45.4748 182.592 45.4584 183.204 45.5956C183.816 45.7328 184.384 46.0194 184.858 46.4296C185.331 46.8399 185.696 47.3612 185.92 47.9468Z" fill="#CCCCCC"/>
<path d="M143.43 144.736L139.775 142.876L145.208 127.894L150.602 130.639L143.43 144.736Z" fill="#FFB8B8"/>
<path d="M137.696 140.504L144.745 144.09L142.487 148.528L131 142.684C131.297 142.102 131.705 141.583 132.202 141.158C132.699 140.733 133.275 140.41 133.896 140.207C134.518 140.005 135.174 139.927 135.826 139.978C136.478 140.029 137.113 140.208 137.696 140.504Z" fill="#571AFF"/>
<path d="M176.061 155.837L171.963 155.685L170.599 139.807L176.647 140.031L176.061 155.837Z" fill="#FFB8B8"/>
<path d="M169.079 154.406L176.982 154.699L176.798 159.675L163.919 159.198C163.968 157.878 164.539 156.632 165.507 155.733C166.475 154.834 167.76 154.357 169.079 154.406Z" fill="#571AFF"/>
<path d="M140.043 139.246L145.415 141.228L169.148 103.841L170.77 151.875L176.895 153.114C176.895 153.114 185.904 92.6636 186.762 87.6584C187.702 82.1715 176.981 74.427 176.981 74.427L176.761 73.7524C168.33 77.9434 143.766 130.598 140.043 139.246Z" fill="#571AFF"/>
<path d="M176.817 42.3607C181.864 40.6585 184.576 35.1869 182.874 30.1394C181.172 25.0919 175.7 22.3799 170.653 24.0821C165.605 25.7842 162.893 31.2559 164.595 36.3034C166.297 41.3509 171.769 44.0628 176.817 42.3607Z" fill="#FFB8B8"/>
<path d="M190.231 84.1695L185.419 48.9212C185.277 47.8775 184.742 46.9271 183.924 46.2637C183.106 45.6003 182.066 45.2736 181.015 45.3502L175.627 45.7416C174.082 45.8533 172.597 46.3833 171.33 47.2748C170.063 48.1663 169.063 49.3857 168.436 50.8024C161.161 68.675 160.844 84.2695 162.901 88.532C164.958 92.7944 172.506 98.4906 190.231 84.1695Z" fill="#CCCCCC"/>
<path opacity="0.2" d="M178.87 62.201C178.87 62.201 177.849 70.4527 174.326 76.1662L161.682 81.4642C161.682 81.4642 161.498 74.9046 161.095 71.4848C164.465 67.9363 177.06 61.8956 178.87 62.201Z" fill="black"/>
<path d="M184.279 49.7868C183.918 49.6028 183.541 49.4531 183.152 49.3394C182.358 49.1219 181.523 49.1048 180.721 49.2895C179.919 49.4743 179.175 49.855 178.557 50.3977L157.081 66.1224L140 71.8656L143.086 79.1626L168.55 72.9464L185.437 57.944C186.019 57.3869 186.459 56.6995 186.722 55.9387C186.985 55.1779 187.063 54.3654 186.95 53.5685C186.836 52.7716 186.535 52.013 186.071 51.3554C185.606 50.6979 184.992 50.1602 184.279 49.7868Z" fill="#CCCCCC"/>
<path d="M237.689 159.928H130.558C130.452 159.928 130.351 159.886 130.276 159.811C130.202 159.737 130.16 159.635 130.16 159.53C130.16 159.424 130.202 159.323 130.276 159.248C130.351 159.173 130.452 159.131 130.558 159.131H237.689C237.794 159.131 237.896 159.173 237.97 159.248C238.045 159.323 238.087 159.424 238.087 159.53C238.087 159.635 238.045 159.737 237.97 159.811C237.896 159.886 237.794 159.928 237.689 159.928Z" fill="#3F3D56"/>
<path d="M107.912 159.928H0.78107C0.675446 159.928 0.574145 159.886 0.499458 159.811C0.42477 159.737 0.382812 159.635 0.382813 159.53C0.382812 159.424 0.42477 159.323 0.499458 159.248C0.574145 159.173 0.675446 159.131 0.78107 159.131H107.912C108.017 159.131 108.119 159.173 108.193 159.248C108.268 159.323 108.31 159.424 108.31 159.53C108.31 159.635 108.268 159.737 108.193 159.811C108.119 159.886 108.017 159.928 107.912 159.928Z" fill="#3F3D56"/>
<path d="M69.2183 155.576L73.1387 154.373L70.3639 138.68L64.5781 140.456L69.2183 155.576Z" fill="#A0616A"/>
<path d="M81.8159 155.693L69.4955 159.474L68.0346 154.714L75.5949 152.394C76.8574 152.006 78.222 152.136 79.3887 152.755C80.5554 153.374 81.4285 154.431 81.8159 155.693Z" fill="#571AFF"/>
<path d="M34.4333 155.666H38.534L40.4846 139.85L34.4326 139.85L34.4333 155.666Z" fill="#A0616A"/>
<path d="M46.4424 159.473L33.5548 159.474L33.5545 154.495L41.4629 154.494C42.7834 154.494 44.05 155.019 44.9838 155.953C45.9177 156.886 46.4423 158.153 46.4424 159.473Z" fill="#571AFF"/>
<path d="M35.4775 103.128C35.1406 102.832 34.8725 102.467 34.6922 102.057C34.5119 101.646 34.4237 101.202 34.4339 100.754C34.444 100.306 34.5522 99.8658 34.7509 99.4642C34.9496 99.0627 35.2339 98.7096 35.5838 98.4298L38.7632 58.3948L45.2289 60.0102L40.052 99.0631C40.483 99.6821 40.6721 100.438 40.5832 101.187C40.4944 101.936 40.1339 102.626 39.5701 103.127C39.0062 103.628 38.2781 103.905 37.5239 103.905C36.7696 103.905 36.0414 103.629 35.4775 103.128Z" fill="#A0616A"/>
<path d="M50.7664 43.2016C55.3034 43.2016 58.9814 39.5236 58.9814 34.9866C58.9814 30.4495 55.3034 26.7715 50.7664 26.7715C46.2293 26.7715 42.5513 30.4495 42.5513 34.9866C42.5513 39.5236 46.2293 43.2016 50.7664 43.2016Z" fill="#A0616A"/>
<path d="M39.5458 59.189C37.5935 56.5089 37.5334 52.8175 39.6363 50.2539C41.0087 48.581 43.3043 47.2422 47.1371 47.2422C57.3529 47.2422 61.2279 55.3444 61.2279 55.3444C61.2279 55.3444 65.4552 63.0944 62.9893 70.1398C60.5234 77.1853 60.5234 77.8898 60.5234 77.8898L44.3189 76.4807C44.3189 76.4807 47.0526 69.4946 39.5458 59.189Z" fill="#F4ED0F"/>
<path d="M34.5488 66.2022L38.0397 54.7813C38.2735 54.0165 38.6724 53.3125 39.2083 52.7188C39.7441 52.1252 40.4037 51.6565 41.1406 51.3459C41.8775 51.0352 42.6736 50.8902 43.4727 50.9211C44.2718 50.9519 45.0544 51.1579 45.7651 51.5245C46.9982 52.1631 47.9422 53.2467 48.4059 54.5557C48.8695 55.8646 48.8181 57.3009 48.262 58.5733L43.8239 68.6805L34.5488 66.2022Z" fill="#F4ED0F"/>
<path d="M60.1714 76.1287L73.91 147.287L66.5123 149.401L48.5465 102.549L40.4442 150.458L32.6942 151.515C32.6942 151.515 29.2947 88.1253 44.3192 76.4809L60.1714 76.1287Z" fill="#571AFF"/>
<path d="M78.6363 68.7425C78.5173 68.8843 78.4096 69.0352 78.3143 69.1938L61.746 69.9971L58.5557 60.2573L53.0161 62.8902L58.2299 77.3968L78.7206 73.3895C79.2021 73.9152 79.8322 74.2819 80.5271 74.4407C81.2221 74.5995 81.9489 74.543 82.611 74.2787C83.273 74.0144 83.8389 73.5548 84.2334 72.961C84.6279 72.3672 84.8322 71.6674 84.8193 70.9547C84.8064 70.2419 84.5768 69.55 84.161 68.9709C83.7453 68.3919 83.1631 67.9531 82.4919 67.7129C81.8207 67.4728 81.0923 67.4427 80.4036 67.6266C79.7148 67.8105 79.0984 68.1997 78.6363 68.7425V68.7425Z" fill="#A0616A"/>
<path d="M50.5203 56.3677C50.4269 55.5735 50.509 54.7684 50.7609 54.0095C51.0128 53.2505 51.4284 52.5561 51.9782 51.9754C52.528 51.3946 53.1986 50.9418 53.9427 50.6488C54.6868 50.3558 55.4862 50.2298 56.2843 50.2797C57.6701 50.3687 58.9702 50.9813 59.921 51.9934C60.8718 53.0055 61.4022 54.3413 61.4045 55.7299V66.7683L51.9157 68.2283L50.5203 56.3677Z" fill="#F4ED0F"/>
<path d="M52.573 43.2761C51.34 43.2707 50.3888 41.9725 50.4441 40.7408C50.4994 39.509 51.3267 38.4252 52.3234 37.6994C53.3201 36.9736 54.4891 36.5314 55.6006 35.9978C56.7121 35.4641 57.814 34.7985 58.5003 33.7741C58.9148 33.1037 59.1623 32.3434 59.2219 31.5574C59.2815 30.7714 59.1514 29.9825 58.8425 29.2572C58.2039 27.8066 57.1073 26.6054 55.7208 25.8375C53.6577 24.6415 51.2233 24.2566 48.8919 24.7578C46.5879 25.2632 43.1541 26.6627 41.8042 28.597L40.3967 32.4294C38.9625 34.154 40.073 36.7152 40.9546 38.7777C41.8362 40.8402 43.7134 42.392 45.8316 43.1297C47.9807 43.8203 50.2813 43.8893 52.468 43.3287" fill="#571AFF"/>
<path d="M45.0655 30.5124C44.4604 29.5426 43.4117 28.9259 42.3275 28.5639C41.0715 28.1446 39.7356 28.0208 38.4239 28.2022C37.1122 28.3837 35.8601 28.8654 34.765 29.6099C33.67 30.3545 32.7616 31.3417 32.1105 32.4947C31.4594 33.6478 31.0833 34.9356 31.0113 36.2578C30.8964 38.3698 31.5577 40.4351 31.9463 42.5142C32.3349 44.5934 32.4122 46.8897 31.2659 48.6673C30.3927 50.0212 28.9366 50.8736 27.4994 51.6015C26.3015 52.2081 25.0058 52.7774 23.6686 52.6565C22.3313 52.5357 20.9873 51.4765 21.0228 50.1342C20.5751 51.0966 20.2728 52.1202 20.1258 53.1714C20.0317 54.227 20.2919 55.366 21.0543 56.102C22.1625 57.1719 23.9183 57.0936 25.4412 56.8628C28.7381 56.363 32.0766 55.426 34.6813 53.344C37.286 51.2619 39.0143 47.8335 38.3284 44.5702C38.0419 43.2071 37.3685 41.9627 36.8243 40.6804C36.2802 39.3981 35.8554 37.9955 36.1054 36.6252C36.2533 35.9192 36.5544 35.2543 36.9874 34.6774C37.4205 34.1005 37.9748 33.6257 38.6114 33.2865C39.8988 32.6171 41.372 32.3937 42.8 32.6514C43.7362 32.805 44.9052 33.0435 45.4604 32.2743C45.6076 32.0306 45.6828 31.7502 45.6772 31.4656C45.6717 31.1809 45.5857 30.9037 45.4291 30.6659C45.1087 30.1956 44.7008 29.7913 44.2275 29.4753" fill="#571AFF"/>
<path d="M181.062 26.6515C185.083 29.7562 174.083 30.4506 168.081 30.4097L169.957 35.9722C171.432 32.9969 173.792 35.7113 174.789 37.4404C176.283 40.0341 180.12 43.6962 183.514 37.5955C186.908 31.4948 183.294 27.7575 181.062 26.6515Z" fill="#571AFF"/>
</g>
<defs>
<clipPath id="clip0">
<rect width="243.234" height="160" fill="white" transform="translate(0.382812)"/>
</clipPath>
</defs>
</svg>

<svg width="244" height="160" fill="none" xmlns="http://www.w3.org/2000/svg"><g clip-path="url(#a)"><path d="M113.833 85.118a42.56 42.56 0 1 1 42.559-42.559 42.603 42.603 0 0 1-42.559 42.56Zm0-83.976a41.419 41.419 0 1 0 41.418 41.417 41.466 41.466 0 0 0-41.418-41.417Z" fill="#571AFF"/><path d="M119.469 56.266c2.637-.94 4.699-2.327 6.185-4.164 1.521-1.85 2.409-4.029 2.665-6.537l5.697-2.03c-.083 3.993-1.275 7.49-3.576 10.488-2.313 2.964-5.456 5.154-9.43 6.57-4.15 1.477-8.215 1.637-12.195.478-3.979-1.158-7.249-3.441-9.81-6.849l-5.117 1.823-1.203-3.377 4.379-1.559a25.384 25.384 0 0 1-1.136-2.687 22.126 22.126 0 0 1-.762-2.641l-4.379 1.56-1.184-3.324 5.065-1.804c-.14-2.843.288-5.532 1.287-8.068a18.693 18.693 0 0 1 4.504-6.716c2.003-1.942 4.394-3.408 7.172-4.397 3.974-1.416 7.801-1.689 11.479-.82 3.678.87 6.818 2.843 9.42 5.92l-5.698 2.028c-1.796-1.817-3.851-2.968-6.163-3.452-2.313-.484-4.805-.25-7.478.702-2.954 1.052-5.27 2.73-6.947 5.03-1.642 2.29-2.462 4.94-2.46 7.95l12.451-4.434 1.184 3.324-13.294 4.735c.195.881.449 1.762.762 2.641.363 1.02.759 1.91 1.188 2.668l13.241-4.716 1.203 3.376-12.397 4.416c1.947 2.239 4.273 3.709 6.98 4.41 2.729.652 5.518.471 8.367-.544Z" fill="#571AFF"/><path d="M130.735 73.84a3.91 3.91 0 0 1 1.346-1.208 3.807 3.807 0 0 1 3.481-.078 3.904 3.904 0 0 1 1.396 1.147L150 69.163l-1.808 7.09-12.108 3.223a3.83 3.83 0 0 1-4.982-.523 4.062 4.062 0 0 1-.367-5.113Z" fill="#FFB8B8"/><path d="M224.626 159.519a82.38 82.38 0 0 1 6.818-26 82.094 82.094 0 0 1 3.388-6.724c.316-.564-.55-1.07-.867-.506a83.524 83.524 0 0 0-9.293 25.639 83.48 83.48 0 0 0-1.049 7.591c-.06.643.944.639 1.003 0Z" fill="#E6E6E6"/><path d="M237.262 128.404a6.355 6.355 0 1 0 0-12.71 6.355 6.355 0 0 0 0 12.71Zm-11.986 31.284a53.446 53.446 0 0 1 4.423-16.868 53.594 53.594 0 0 1 2.198-4.362.324.324 0 0 0-.122-.435.325.325 0 0 0-.44.107 54.152 54.152 0 0 0-6.71 21.558c-.038.417.613.415.651 0Z" fill="#E6E6E6"/><path d="M233.474 139.502a4.122 4.122 0 1 0-4.123-4.122 4.122 4.122 0 0 0 4.123 4.122Zm-9.019 19.797a53.447 53.447 0 0 1-6.887-16.02 53.032 53.032 0 0 1-.95-4.791.328.328 0 0 0-.365-.269.324.324 0 0 0-.281.355 54.2 54.2 0 0 0 5.477 16.824 54.18 54.18 0 0 0 2.493 4.302c.226.352.737-.051.513-.401Z" fill="#E6E6E6"/><path d="M215.967 139.213a4.123 4.123 0 1 0 0-8.246 4.123 4.123 0 0 0 0 8.246Z" fill="#E6E6E6"/><path d="M204.805 98.995a3.949 3.949 0 0 0-3.498-4.943l-3.508-13.587-4.891 5.409 4.081 12.073a3.972 3.972 0 0 0 7.816 1.048Z" fill="#FFB8B8"/><path d="m185.92 47.947 15.88 41.647-6.823 1.887-16.421-43.779 1.188-1.14a3.795 3.795 0 0 1 6.176 1.385Z" fill="#CCC"/><path d="m143.43 144.736-3.655-1.86 5.433-14.982 5.394 2.745-7.172 14.097Z" fill="#FFB8B8"/><path d="m137.696 140.504 7.049 3.586-2.258 4.438L131 142.684a4.995 4.995 0 0 1 2.896-2.477 4.99 4.99 0 0 1 3.8.297Z" fill="#571AFF"/><path d="m176.061 155.837-4.098-.152-1.364-15.878 6.048.224-.586 15.806Z" fill="#FFB8B8"/><path d="m169.079 154.406 7.903.293-.184 4.976-12.879-.477a4.98 4.98 0 0 1 5.16-4.792Zm-29.036-15.16 5.372 1.982 23.733-37.387 1.622 48.034 6.125 1.239s9.009-60.45 9.867-65.456c.94-5.487-9.781-13.231-9.781-13.231l-.22-.675c-8.431 4.191-32.995 56.846-36.718 65.494Z" fill="#571AFF"/><path d="M176.817 42.36c5.047-1.702 7.759-7.173 6.057-12.22-1.702-5.048-7.174-7.76-12.221-6.058-5.048 1.702-7.76 7.174-6.058 12.221 1.702 5.048 7.174 7.76 12.222 6.058Z" fill="#FFB8B8"/><path d="m190.231 84.17-4.812-35.249a4.141 4.141 0 0 0-4.404-3.57l-5.388.39a8.536 8.536 0 0 0-7.191 5.061c-7.275 17.873-7.592 33.467-5.535 37.73 2.057 4.262 9.605 9.959 27.33-4.362Z" fill="#CCC"/><path opacity=".2" d="M178.87 62.201s-1.021 8.252-4.544 13.965l-12.644 5.298s-.184-6.56-.587-9.98c3.37-3.548 15.965-9.588 17.775-9.283Z" fill="#000"/><path d="M184.279 49.787a6.49 6.49 0 0 0-1.127-.448 4.974 4.974 0 0 0-4.595 1.059l-21.476 15.724L140 71.866l3.086 7.297 25.464-6.217 16.887-15.002a5.067 5.067 0 0 0 1.513-4.376 5.084 5.084 0 0 0-2.671-3.782Z" fill="#CCC"/><path d="M237.689 159.928H130.558a.398.398 0 1 1 0-.797h107.131a.398.398 0 0 1 0 .797Zm-129.777 0H.782a.397.397 0 0 1-.283-.68.397.397 0 0 1 .282-.117h107.131a.398.398 0 0 1 0 .797Z" fill="#3F3D56"/><path d="m69.218 155.576 3.92-1.203-2.774-15.693-5.786 1.776 4.64 15.12Z" fill="#A0616A"/><path d="m81.816 155.693-12.32 3.781-1.461-4.76 7.56-2.32a4.975 4.975 0 0 1 6.22 3.299Z" fill="#571AFF"/><path d="M34.433 155.666h4.101l1.95-15.816h-6.051v15.816Z" fill="#A0616A"/><path d="m46.442 159.473-12.887.001v-4.979l7.908-.001a4.98 4.98 0 0 1 4.98 4.979Z" fill="#571AFF"/><path d="M35.477 103.128a3.072 3.072 0 0 1-1.043-2.374 3.064 3.064 0 0 1 1.15-2.324l3.18-40.035 6.465 1.615-5.177 39.053a3.082 3.082 0 0 1-4.575 4.065Zm15.289-59.926a8.215 8.215 0 1 0 0-16.43 8.215 8.215 0 0 0 0 16.43Z" fill="#A0616A"/><path d="M39.546 59.189c-1.953-2.68-2.013-6.371.09-8.935 1.373-1.673 3.668-3.012 7.501-3.012 10.216 0 14.09 8.102 14.09 8.102s4.228 7.75 1.762 14.796c-2.466 7.045-2.466 7.75-2.466 7.75L44.32 76.48s2.734-6.985-4.773-17.291Z" fill="#F4ED0F"/><path d="m34.549 66.202 3.49-11.42a5.46 5.46 0 0 1 7.726-3.257 5.47 5.47 0 0 1 2.497 7.048L43.824 68.68l-9.275-2.478Z" fill="#F4ED0F"/><path d="m60.171 76.129 13.739 71.158-7.398 2.114-17.965-46.852-8.103 47.909-7.75 1.057s-3.4-63.39 11.625-75.034l15.852-.352Z" fill="#571AFF"/><path d="M78.636 68.743a3.532 3.532 0 0 0-.322.45l-16.568.804-3.19-9.74-5.54 2.633 5.214 14.507 20.49-4.008a3.51 3.51 0 1 0-.084-4.646Z" fill="#A0616A"/><path d="M50.52 56.368a5.461 5.461 0 0 1 5.764-6.088 5.47 5.47 0 0 1 5.12 5.45v11.038l-9.488 1.46-1.396-11.86Z" fill="#F4ED0F"/><path d="M52.573 43.276c-1.233-.005-2.184-1.304-2.129-2.535.055-1.232.883-2.316 1.88-3.042.996-.725 2.165-1.168 3.277-1.701 1.111-.534 2.213-1.2 2.9-2.224a4.923 4.923 0 0 0 .342-4.517 7.247 7.247 0 0 0-3.122-3.42 9.595 9.595 0 0 0-6.83-1.08c-2.303.506-5.737 1.906-7.087 3.84l-1.407 3.832c-1.434 1.725-.324 4.286.558 6.349.881 2.062 2.758 3.614 4.877 4.352 2.149.69 4.45.76 6.636.199" fill="#571AFF"/><path d="M45.066 30.512c-.606-.97-1.654-1.586-2.739-1.948a8.605 8.605 0 0 0-11.316 7.694c-.115 2.112.547 4.177.935 6.256.389 2.08.466 4.376-.68 6.153-.873 1.354-2.33 2.207-3.767 2.934-1.197.607-2.493 1.176-3.83 1.056-1.338-.121-2.682-1.18-2.646-2.523-.448.963-.75 1.986-.897 3.037-.094 1.056.166 2.195.928 2.931 1.109 1.07 2.864.992 4.387.76 3.297-.499 6.636-1.436 9.24-3.518 2.605-2.082 4.333-5.51 3.647-8.774-.286-1.363-.96-2.607-1.504-3.89-.544-1.282-.969-2.684-.719-4.055a4.928 4.928 0 0 1 2.506-3.339 6.556 6.556 0 0 1 4.189-.635c.936.154 2.105.392 2.66-.377a1.507 1.507 0 0 0-.03-1.608 4.432 4.432 0 0 0-1.203-1.19m136.835-2.825c4.021 3.105-6.979 3.8-12.981 3.759l1.876 5.562c1.475-2.975 3.835-.26 4.832 1.468 1.494 2.594 5.331 6.256 8.725.156 3.394-6.101-.22-9.838-2.452-10.944Z" fill="#571AFF"/></g><defs><clipPath id="a"><path fill="#fff" transform="translate(.383)" d="M0 0h243.234v160H0z"/></clipPath></defs></svg>
